X:1
T:In the Hollow of His Hand
T:George Coles Stebbins
T:In the Hollow of His Hand
T:Public Domain
T:Public Domain
C:George Coles Stebbins
Z:Public Domain
%%score ( 1 2 ) ( 3 4 )
L:1/8
M:6/4
K:Bb
V:1 treble 
V:2 treble 
V:3 bass 
V:4 bass 
V:1
 ([B,D][CE]) | [DF]4 [DF]2 ([DF]2 [EG]2) [DF]2 | [DF]2 [DB]6 z2 [FA]2 | [EG]4 [GB]2 (B2 A2) [Ec]2 | %4
w: 1.~O, *|soul tossed on * the|bil- lows, A-|far from friend- * ly|
w: 2.~Tho’ *|rag- ing winds * may|drive thee, A|wreck up- on * the|
w: 3.~When *|strength is spent * in|toil- ing, And|wear- i- ly * you|
w: 4.~When *|strength is spent * in|toil- ing, And|wear- i- ly * you|
w: 5.~And *|when at last * we’re|ga- thered, With|all the ran- * somed|
 [DB]8 z2 ([DB][Ec]) | [Fd]4 [Fd]2 ([Fd]2 [Ge]2) [Fd]2 | [Fd]2 [Fc]4 [Fc]4 [FB]2 | %7
w: Look up *|to Him who * holds|thee in “The hol-|
w: Still cling *|to Him who * holds|thee in “The hol-|
w: Then rest *|in Him who * holds|thee in “The hol-|
w: Then rest *|in Him who * holds|thee in “The hol-|
w: We’ll praise *|our God who * holds|us in “The hol-|
 [FA]2 [Fc]4 [=EB]4 [EG]2 | F6 ||"^Refrain" [DF]4 [CE]2 | [B,D]2 [DF]4 [EG]4 [EB]2 | %11
w: low of His hand.”||||
w: low of His hand.”||||
w: low of His hand.”|In|hol- low|of His hand,” In|
w: low of His hand.”||||
w: low of His hand.”||||
 [DF]6 [B,D]4 [CE]2 | [DF]2 [DB]4 [EA]4 [FB]2 | [Fc]6 [FB]4 [Fc]2 | [Fd]4 [Ge]2 (d2 c2) [FB]2 | %15
w: ||||
w: ||||
w: the hol- low|of His hand, O|how safe are|all who trust * Him,|
w: ||||
w: ||||
 [GB]2 [EG]4 [FA]4 [GB]2 | [DF]2 [FB]4 [EA]4 [Ec]2 | [DB]6- [DB]4 |] %18
w: |||
w: |||
w: “The hol- low of|His hand.” * *||
w: |||
w: |||
V:2
 x2 | x12 | x12 | x6 F4 x2 | x12 | x12 | x12 | x12 | F6 || x6 | x12 | x12 | x12 | x12 | x6 F4 x2 | %15
w: |||land,||||||||||||
w: |||strand,||||||||||||
w: |||stand,|||||“The||||||In|
w: |||stand,||||||||||||
w: |||band,||||||||||||
 x12 | x12 | x10 |] %18
w: |||
w: |||
w: |||
w: |||
w: |||
V:3
 [B,,F,]2 | [B,,B,]4 [B,,B,]2 [B,,B,]4 [B,,B,]2 | [B,,B,]2 [B,,F,]6 z2 [D,B,]2 | %3
 [E,B,]4 [E,E]2 (D2 C2) [F,A,]2 | [B,,B,]8 z2 [B,,B,]2 | [B,,B,]4 [B,,B,]2 [B,,B,]4 [B,,B,]2 | %6
 [F,B,]2 [F,A,]4 [A,,C]4 [B,,D]2 | [C,C]2 [C,A,]4 [C,G,]4 [C,B,]2 | [F,A,]6 || [B,,B,]4 [B,,F,]2 | %10
 [B,,F,]2 [B,,B,]4 [B,,B,]4 [B,,G,]2 | [B,,B,]6 [B,,F,]4 [B,,F,]2 | %12
 [B,,F,]2 [B,,F,]4 [C,F,]4 [D,B,]2 | [F,A,]6 [D,B,]4 [F,A,]2 | B,4 B,2 [B,,B,]2 [C,A,]2 [D,B,]2 | %15
 [E,B,]2 [E,B,]4 [E,B,]4 [E,B,]2 | [F,B,]2 [F,D]4 [F,C]4 [F,A,]2 | [B,,B,]6- [B,,B,]4 |] %18
V:4
 x2 | x12 | x12 | x6 F,4 x2 | x12 | x12 | x12 | x12 | x6 || x6 | x12 | x12 | x12 | x12 | %14
 B,4 B,2 x6 | x12 | x12 | x10 |] %18

